X:1
T:Boardman, CM
T:Boardman, CM
T:Arranged from L. Devereux or Charles Jeffreys
T:Public Domain Courtesy of the Cyber Hymnal™
C:Arranged from L. Devereux or Charles Jeffreys
Z:Public Domain
Z:Courtesy of the Cyber Hymnal™
%%score ( 1 2 ) ( 3 4 )
L:1/8
M:3/4
K:Ab
V:1 treble 
V:2 treble 
V:3 bass 
V:4 bass 
V:1
 A2 | [Ae]4 [Ed]2 | (c3 B) [EA]2 | [FA]3 [EG] [DF]2 | [CE]4 [CE]2 | E2 A2 [EA]2 | (c3 B) A2 | %7
 [GB]4 E2 | [Ae]4 [Ed]2 | (c3 B) [EA]2 | [FA]3 [EG] [DF]2 | [CE]4 E2 | [DF]2 [FB]2 [EA]2 | %13
 (G3 F) [EG]2 | [EA]4 |] %15
V:2
 A2 | x6 | E4 x2 | x6 | x6 | C4 x2 | A4 A2 | x4 E2 | x6 | E4 x2 | x6 | x4 E2 | x6 | E4 x2 | x4 |] %15
V:3
 [A,C]2 | [A,,C]4 [A,,B,]2 | ([A,,A,]3 [B,,G,]) [C,A,]2 | [D,A,]4 [F,A,]2 | A,4 A,2 | A,4 [A,C]2 | %6
 (E3 D) [A,C]2 | [E,B,]4 E,2 | [A,,C]4 [A,,B,]2 | [A,,A,]3 [B,,G,] [C,A,]2 | [D,A,]4 [F,A,]2 | %11
 A,4 [C,A,]2 | ([D,A,]2 [B,,D]2) C2 | [E,B,]4 [E,D]2 | [A,,C]4 |] %15
V:4
 x2 | x6 | x6 | x6 | A,4 A,2 | A,4 x2 | A,4 x2 | x4 E,2 | x6 | x6 | x6 | A,4 x2 | x4 (C,D,) | x6 | %14
 x4 |] %15

